icons/Brain.svg

<svg width="24" height="24" viewBox="0 0 24 24" fill="none" xmlns="http://www.w3.org/2000/svg">
<path fill-rule="evenodd" clip-rule="evenodd" d="M4.58827,9.80324c0.07357,-0.0403 0.14841,-0.07861 0.22444,-0.11487c0.37386,-0.17833 0.82149,-0.01981 0.99982,0.35403c0.17832,0.3739 0.01981,0.8215 -0.35406,0.9998c-0.58636,0.2797 -1.06609,0.7422 -1.36708,1.3179c-0.22536,0.4311 -0.34139,0.9082 -0.34139,1.3899l0.00018,0.0325c0.00163,0.1509 0.01465,0.3021 0.03926,0.4523c0.10498,0.6411 0.41524,1.2308 0.88414,1.6805c0.46889,0.4496 1.07107,0.7349 1.71602,0.813c0.41121,0.0497 0.70422,0.4234 0.65446,0.8346c-0.04976,0.4113 -0.42346,0.7043 -0.83467,0.6545c-0.29305,-0.0355 -0.58022,-0.0994 -0.85773,-0.1902c0.3424,1.2801 1.51028,2.2228 2.89834,2.2228c1.65685,0 3,-1.3431 3,-3v-4.7884c-0.6806,0.6562 -1.45512,1.064 -2.01282,1.2499c-0.39296,0.131 -0.8177,-0.0814 -0.94869,-0.4743c-0.13098,-0.393 0.08139,-0.8177 0.47435,-0.9487c0.39556,-0.1319 1.03642,-0.4697 1.56826,-1.0299c0.5186,-0.5462 0.9172,-1.28351 0.9189,-2.25223v-0.00128v-0.00509v-0.00198v-0.00098v-3.24408v-0.00296v-0.00066l-0.0003,-0.03335c-0.005,-0.29335 -0.0744,-0.58215 -0.2036,-0.84587c-0.0845,-0.17237 -0.193,-0.33115 -0.322,-0.47177c-0.0375,-0.04093 -0.0768,-0.08033 -0.1177,-0.11807c-0.0418,-0.03864 -0.0854,-0.07554 -0.1306,-0.11059c-0.241,-0.18694 -0.52155,-0.31628 -0.82022,-0.37814c-0.13459,-0.02787 -0.27126,-0.0417 -0.40783,-0.04155c-0.16649,0.00019 -0.33283,0.02116 -0.49512,0.06283c-0.29543,0.07586 -0.56959,0.21827 -0.80152,0.41636c-0.23193,0.19808 -0.41548,0.44659 -0.53661,0.72651c-0.12114,0.27993 -0.17664,0.58384 -0.16227,0.88851c0.01436,0.30467 0.09822,0.60202 0.24516,0.8693c0.19955,0.36298 0.06707,0.81899 -0.29591,1.01854c-0.36298,0.19955 -0.819,0.06707 -1.01855,-0.29591c-0.1122,-0.20409 -0.20338,-0.4182 -0.27262,-0.63903c-0.83823,0.4384 -1.41031,1.31683 -1.41031,2.32789c0,0.2349 0.0307,0.46216 0.08827,0.67824zM12,19.7383c-0.8062,1.2126 -2.18477,2.0117 -3.75,2.0117c-2.48528,0 -4.5,-2.0147 -4.5,-4.5c0,-0.0481 0.00076,-0.0961 0.00226,-0.1439l-0.02869,-0.0258c-0.02974,-0.0271 -0.05914,-0.0545 -0.08821,-0.0824c-0.10808,-0.1036 -0.21055,-0.2122 -0.30714,-0.3253c-0.67168,-0.7859 -1.07822,-1.8068 -1.07822,-2.9226c0,-1.1295 0.41682,-2.1624 1.10357,-2.952c-0.2273,-0.5118 -0.35357,-1.07828 -0.35357,-1.673c0,-1.81131 1.16685,-3.34881 2.7897,-3.90386c0.25494,-1.68205 1.70708,-2.97114 3.4603,-2.97114h0.00227c0.92523,0.00059 1.76653,0.36021 2.39203,0.94709c0.0538,0.05041 0.1059,0.10247 0.1562,0.15609c0.0698,0.07421 0.1364,0.15146 0.1995,0.23153c0.0631,-0.08007 0.1297,-0.15732 0.1995,-0.23153c0.0503,-0.05362 0.1024,-0.10568 0.1562,-0.15609c0.6255,-0.58688 1.4668,-0.9465 2.392,-0.94709h0.0023c1.7532,0 3.2054,1.28909 3.4603,2.97114c1.6229,0.55505 2.7897,2.09255 2.7897,3.90386c0,0.59472 -0.1263,1.1612 -0.3536,1.673c0.6868,0.7896 1.1036,1.8225 1.1036,2.952c0,1.1158 -0.4065,2.1367 -1.0782,2.9226c-0.0966,0.1131 -0.1991,0.2217 -0.3072,0.3253c-0.029,0.0279 -0.0584,0.0553 -0.0882,0.0824l-0.0287,0.0258c0.0015,0.0478 0.0023,0.0958 0.0023,0.1439c0,2.4853 -2.0147,4.5 -4.5,4.5c-1.5652,0 -2.9438,-0.7991 -3.75,-2.0117zM12.75,9.00637c0.0017,0.96872 0.4003,1.70603 0.9189,2.25223c0.5318,0.5602 1.1727,0.898 1.5683,1.0299c0.3929,0.131 0.6053,0.5557 0.4743,0.9487c-0.131,0.3929 -0.5557,0.6053 -0.9487,0.4743c-0.5577,-0.1859 -1.3322,-0.5937 -2.0128,-1.2499v4.7884c0,1.6569 1.3431,3 3,3c1.3881,0 2.5559,-0.9427 2.8983,-2.2228c-0.2775,0.0908 -0.5646,0.1547 -0.8577,0.1902c-0.4112,0.0498 -0.7849,-0.2432 -0.8347,-0.6545c-0.0497,-0.4112 0.2433,-0.7849 0.6545,-0.8346c0.645,-0.0781 1.2471,-0.3634 1.716,-0.813c0.4689,-0.4497 0.7792,-1.0394 0.8842,-1.6805c0.0246,-0.1502 0.0376,-0.3014 0.0392,-0.4523l0.0002,-0.0325c0,-0.4817 -0.116,-0.9588 -0.3414,-1.3899c-0.301,-0.5757 -0.7807,-1.0382 -1.3671,-1.3179c-0.3738,-0.1783 -0.5324,-0.6259 -0.354,-0.9998c0.1783,-0.37384 0.6259,-0.53236 0.9998,-0.35403c0.076,0.03626 0.1509,0.07457 0.2244,0.11487c0.0576,-0.21608 0.0883,-0.44334 0.0883,-0.67824c0,-1.01106 -0.5721,-1.88949 -1.4103,-2.32789c-0.0692,0.22083 -0.1604,0.43494 -0.2726,0.63903c-0.1996,0.36298 -0.6556,0.49546 -1.0186,0.29591c-0.363,-0.19955 -0.4954,-0.65556 -0.2959,-1.01854c0.1469,-0.26728 0.2308,-0.56463 0.2452,-0.8693c0.0143,-0.30467 -0.0412,-0.60858 -0.1623,-0.88851c-0.1211,-0.27992 -0.3047,-0.52843 -0.5366,-0.72651c-0.2319,-0.19809 -0.5061,-0.3405 -0.8015,-0.41636c-0.1623,-0.04167 -0.3287,-0.06264 -0.4951,-0.06283c-0.1366,-0.00015 -0.2733,0.01368 -0.4079,0.04155c-0.2986,0.06186 -0.5792,0.1912 -0.8202,0.37814c-0.0452,0.03505 -0.0888,0.07195 -0.1306,0.11059c-0.0409,0.03774 -0.0802,0.07714 -0.1177,0.11807c-0.129,0.14062 -0.2375,0.2994 -0.322,0.47177c-0.1292,0.26372 -0.1986,0.55252 -0.2036,0.84587l-0.0003,0.03335v0.00066v0.00296v3.24408v0.00098v0.00198v0.00509z" fill="#002B51"/>
</svg>

<svg width="24" height="24" viewBox="0 0 24 24" fill="none" xmlns="http://www.w3.org/2000/svg">
<path fill-rule="evenodd" clip-rule="evenodd" d="M4.5 9.125C4.5 8.11394 5.07208 7.23551 5.91031 6.79711C5.97955 7.01794 6.07073 7.23205 6.18293 7.43614C6.38248 7.79912 6.8385 7.9316 7.20148 7.73205C7.56446 7.5325 7.69694 7.07649 7.49739 6.71351C7.35045 6.44623 7.26659 6.14888 7.25223 5.84421C7.23786 5.53954 7.29336 5.23563 7.4145 4.9557C7.53563 4.67578 7.71918 4.42727 7.95111 4.22919C8.18304 4.0311 8.4572 3.88869 8.75263 3.81283C8.91492 3.77116 9.08126 3.75019 9.24775 3.75C9.38432 3.74985 9.52099 3.76368 9.65558 3.79155C9.95425 3.85341 10.2348 3.98275 10.4758 4.16969C10.521 4.20474 10.5646 4.24164 10.6064 4.28028C10.6473 4.31802 10.6866 4.35742 10.7241 4.39835C10.8531 4.53897 10.9616 4.69775 11.0461 4.87012C11.1753 5.13384 11.2447 5.42264 11.2497 5.71599L11.25 5.74934L11.25 5.75L11.25 5.75296V8.99704L11.25 8.99802L11.25 9L11.25 9.00509V9.00637C11.2483 9.97509 10.8497 10.7124 10.3311 11.2586C9.79926 11.8188 9.1584 12.1566 8.76284 12.2885C8.36988 12.4195 8.15751 12.8442 8.28849 13.2372C8.41948 13.6301 8.84422 13.8425 9.23718 13.7115C9.79488 13.5256 10.5694 13.1178 11.25 12.4616V17.25C11.25 18.9069 9.90685 20.25 8.25 20.25C6.86194 20.25 5.69406 19.3073 5.35166 18.0272C5.62917 18.118 5.91634 18.1819 6.20939 18.2174C6.6206 18.2672 6.9943 17.9742 7.04406 17.5629C7.09382 17.1517 6.80081 16.778 6.3896 16.7283C5.74465 16.6502 5.14247 16.3649 4.67358 15.9153C4.20468 15.4656 3.89442 14.8759 3.78944 14.2348C3.76483 14.0846 3.75181 13.9334 3.75018 13.7825L3.75 13.75C3.75 13.2683 3.86603 12.7912 4.09139 12.3601C4.39238 11.7844 4.87211 11.3219 5.45847 11.0422C5.83234 10.8639 5.99085 10.4163 5.81253 10.0424C5.6342 9.66856 5.18657 9.51004 4.81271 9.68837C4.73668 9.72463 4.66184 9.76294 4.58827 9.80324C4.5307 9.58716 4.5 9.3599 4.5 9.125ZM12 19.7383C11.1938 20.9509 9.81523 21.75 8.25 21.75C5.76472 21.75 3.75 19.7353 3.75 17.25C3.75 17.2019 3.75076 17.1539 3.75226 17.1061L3.72357 17.0803C3.69383 17.0532 3.66443 17.0258 3.63536 16.9979C3.52728 16.8943 3.42481 16.7857 3.32822 16.6726C2.65654 15.8867 2.25 14.8658 2.25 13.75C2.25 12.6205 2.66682 11.5876 3.35357 10.798C3.12627 10.2862 3 9.71972 3 9.125C3 7.31369 4.16685 5.77619 5.7897 5.22114C6.04464 3.53909 7.49678 2.25 9.25 2.25H9.25227C10.1775 2.25059 11.0188 2.61021 11.6443 3.19709C11.6981 3.2475 11.7502 3.29956 11.8005 3.35318C11.8703 3.42739 11.9369 3.50464 12 3.58471C12.0631 3.50464 12.1297 3.42739 12.1995 3.35318C12.2498 3.29956 12.3019 3.2475 12.3557 3.19709C12.9812 2.61021 13.8225 2.25059 14.7477 2.25H14.75C16.5032 2.25 17.9554 3.53909 18.2103 5.22114C19.8332 5.77619 21 7.31369 21 9.125C21 9.71972 20.8737 10.2862 20.6464 10.798C21.3332 11.5876 21.75 12.6205 21.75 13.75C21.75 14.8658 21.3435 15.8867 20.6718 16.6726C20.5752 16.7857 20.4727 16.8943 20.3646 16.9979C20.3356 17.0258 20.3062 17.0532 20.2764 17.0803L20.2477 17.1061C20.2492 17.1539 20.25 17.2019 20.25 17.25C20.25 19.7353 18.2353 21.75 15.75 21.75C14.1848 21.75 12.8062 20.9509 12 19.7383ZM12.75 9.00637C12.7517 9.97509 13.1503 10.7124 13.6689 11.2586C14.2007 11.8188 14.8416 12.1566 15.2372 12.2885C15.6301 12.4195 15.8425 12.8442 15.7115 13.2372C15.5805 13.6301 15.1558 13.8425 14.7628 13.7115C14.2051 13.5256 13.4306 13.1178 12.75 12.4616V17.25C12.75 18.9069 14.0931 20.25 15.75 20.25C17.1381 20.25 18.3059 19.3073 18.6483 18.0272C18.3708 18.118 18.0837 18.1819 17.7906 18.2174C17.3794 18.2672 17.0057 17.9742 16.9559 17.5629C16.9062 17.1517 17.1992 16.778 17.6104 16.7283C18.2554 16.6502 18.8575 16.3649 19.3264 15.9153C19.7953 15.4656 20.1056 14.8759 20.2106 14.2348C20.2352 14.0846 20.2482 13.9334 20.2498 13.7825L20.25 13.75C20.25 13.2683 20.134 12.7912 19.9086 12.3601C19.6076 11.7844 19.1279 11.3219 18.5415 11.0422C18.1677 10.8639 18.0091 10.4163 18.1875 10.0424C18.3658 9.66856 18.8134 9.51004 19.1873 9.68837C19.2633 9.72463 19.3382 9.76294 19.4117 9.80324C19.4693 9.58716 19.5 9.3599 19.5 9.125C19.5 8.11394 18.9279 7.23551 18.0897 6.79711C18.0205 7.01794 17.9293 7.23205 17.8171 7.43614C17.6175 7.79912 17.1615 7.9316 16.7985 7.73205C16.4355 7.5325 16.3031 7.07649 16.5026 6.71351C16.6495 6.44623 16.7334 6.14888 16.7478 5.84421C16.7621 5.53954 16.7066 5.23563 16.5855 4.9557C16.4644 4.67578 16.2808 4.42727 16.0489 4.22919C15.817 4.0311 15.5428 3.88869 15.2474 3.81283C15.0851 3.77116 14.9187 3.75019 14.7523 3.75C14.6157 3.74985 14.479 3.76368 14.3444 3.79155C14.0458 3.85341 13.7652 3.98275 13.5242 4.16969C13.479 4.20474 13.4354 4.24164 13.3936 4.28028C13.3527 4.31802 13.3134 4.35742 13.2759 4.39835C13.1469 4.53897 13.0384 4.69775 12.9539 4.87012C12.8247 5.13384 12.7553 5.42264 12.7503 5.71599L12.75 5.74934L12.75 5.75L12.75 5.75296V8.99704L12.75 8.99802L12.75 9L12.75 9.00509V9.00637Z" fill="#002B51"/>
</svg>
